apps/scalable/image-viewer/image-viewer.svg

<svg xmlns="http://www.w3.org/2000/svg" style="isolation:isolate" width="256" height="256"><defs><filter id="a" width="270.648" height="254.338" x="-7.32" y="2.95" filterUnits="userSpaceOnUse"><feGaussianBlur xmlns="http://www.w3.org/2000/svg" in="SourceGraphic" stdDeviation="4.294"/><feOffset xmlns="http://www.w3.org/2000/svg" dy="4" result="pf_100_offsetBlur"/><feFlood xmlns="http://www.w3.org/2000/svg" flood-opacity=".4"/><feComposite xmlns="http://www.w3.org/2000/svg" in2="pf_100_offsetBlur" operator="in" result="pf_100_dropShadow"/><feBlend xmlns="http://www.w3.org/2000/svg" in="SourceGraphic" in2="pf_100_dropShadow"/></filter></defs><path fill="#F1F0E9" d="M165.685 11.947c74.055 0 84.639 10.557 84.639 84.544v59.251c0 73.986-10.584 84.543-84.639 84.543h-75.37c-74.055 0-84.639-10.557-84.639-84.543V96.491c0-73.987 10.584-84.544 84.639-84.544h75.37z" filter="url(#a)"/><path fill="#DAD9CE" d="M243.924 39.23c5.061 12.646 6.4 30.94 6.4 57.261v25.842q-32.991 61.334-64.356 117.586c-6.167.262-12.91.366-20.283.366H137Q228.667 69 243.924 39.23z"/><path fill="#C8C4B7" d="M184.669 12.261c34.853 1.338 51.638 7.443 59.415 27.373Q223 80.333 139.333 240.285H90.315c-9.431 0-17.833-.171-25.315-.623C94 185.667 166.333 46.667 184.669 12.261z"/><path fill="#AEA795" d="M249.604 182.54c-3.332 49.864-19.935 57.745-83.919 57.745h-75.37c-63.999 0-80.594-7.884-83.921-57.778-5.191.634 239.086.679 243.21.033z"/><path fill="#FFF" d="M185.002 12.274c56.642 2.231 65.322 17.213 65.322 84.217v59.251c0 73.986-10.584 84.543-84.639 84.543h-75.37c-9.284 0-17.57-.166-24.963-.602C100.333 174 173 34.667 185.002 12.274z" opacity=".05"/><path fill="#DAD9CE" d="M135.822 11.918L46.455 183.205h48.93l89.177-170.923-48.74-.364z"/><circle fill="#F9F9F9" r="1" transform="matrix(24 0 0 24 183 87)" vector-effect="non-scaling-stroke"/><path fill="#FFF" d="M47 183l47.635-91.628L142.27 183H47z"/><path fill="#F9F9F9" d="M95 183l36-69 36 69H95z"/><defs><filter id="b" width="160.131" height="160.287" x="47.31" y="49.44" filterUnits="userSpaceOnUse"><feGaussianBlur xmlns="http://www.w3.org/2000/svg" stdDeviation="1.531"/></filter></defs><path d="M114.875 53c-35.298 0-64 28.702-64 64s28.702 64 64 64c15.452 0 29.639-5.502 40.709-14.648l6.891 6.89-1.414 1.414 31.5 31.5 11.314-11.312-31.5-31.5-1.414 1.414-6.881-6.881c9.232-11.094 14.795-25.345 14.795-40.877 0-35.298-28.702-64-64-64zm0 8.137c30.901 0 55.863 24.962 55.863 55.863s-24.962 55.865-55.863 55.865S59.01 147.901 59.01 117c0-30.901 24.964-55.863 55.865-55.863z" opacity=".2" filter="url(#b)"/><g><path fill="#888" d="M154.47 163.24l8.49-8.48 12 12-8.49 8.48-12-12z"/><path fill="#3B3B3B" d="M161.06 172.66l11.31-11.32 31.5 31.5-11.31 11.32-31.5-31.5z"/><circle fill="#FFF" fill-opacity=".543" r="1" transform="translate(114.875 115) scale(59.932)" vector-effect="non-scaling-stroke"/><path fill="#666" fill-rule="evenodd" d="M178.87 115zm0 0c.01 8.55-1.7 17.02-5.03 24.9a64.207 64.207 0 0 1-13.72 20.35 64.218 64.218 0 0 1-20.34 13.72 63.976 63.976 0 0 1-24.91 5.03c-8.55.01-17.02-1.71-24.9-5.03a64.218 64.218 0 0 1-20.34-13.72 64.207 64.207 0 0 1-13.72-20.35 63.973 63.973 0 0 1-5.04-24.9c0-8.55 1.71-17.02 5.04-24.9 3.22-7.6 7.88-14.51 13.72-20.35a64.218 64.218 0 0 1 20.34-13.72 63.964 63.964 0 0 1 24.9-5.03c8.56-.01 17.03 1.71 24.91 5.03 7.6 3.23 14.51 7.88 20.34 13.72a64.207 64.207 0 0 1 13.72 20.35 63.783 63.783 0 0 1 5.03 24.9zm-8.13 0c0 7.47-1.49 14.86-4.39 21.73a55.84 55.84 0 0 1-11.98 17.76c-5.1 5.1-11.13 9.17-17.76 11.98a55.587 55.587 0 0 1-21.73 4.39h-.01c-7.46.01-14.85-1.48-21.73-4.39a55.952 55.952 0 0 1-17.76-11.98 55.84 55.84 0 0 1-11.98-17.76c-2.9-6.87-4.4-14.26-4.39-21.73a55.78 55.78 0 0 1 4.39-21.74 55.909 55.909 0 0 1 11.98-17.75c5.09-5.1 11.13-9.17 17.76-11.98 6.88-2.91 14.27-4.4 21.73-4.39a55.6 55.6 0 0 1 21.74 4.39 56.063 56.063 0 0 1 17.76 11.98 55.84 55.84 0 0 1 11.98 17.76c2.9 6.87 4.39 14.26 4.39 21.73z"/></g><g opacity=".4"><linearGradient id="c" x1=".517" x2=".517" y2="1"><stop offset="0%" stop-color="#fff"/><stop offset="12.5%" stop-opacity=".098" stop-color="#fff"/><stop offset="92.5%" stop-opacity=".098"/><stop offset="100%" stop-opacity=".498"/></linearGradient><path fill="none" stroke="url(#c)" stroke-linecap="round" stroke-linejoin="round" stroke-width="4.077" d="M165.685 11.947c74.055 0 84.639 10.557 84.639 84.544v59.251c0 73.986-10.584 84.543-84.639 84.543h-75.37c-74.055 0-84.639-10.557-84.639-84.543V96.491c0-73.987 10.584-84.544 84.639-84.544h75.37z" vector-effect="non-scaling-stroke"/></g></svg>

<svg xmlns="http://www.w3.org/2000/svg" style="isolation:isolate" width="256" height="256" viewBox="0 0 256 256">
 <defs>
  <filter id="ITudDIRcXdNKNWNAh1esCcpuARwmn5f1" width="270.648" height="254.338" x="-7.32" y="2.95" filterUnits="userSpaceOnUse">
   <feGaussianBlur xmlns="http://www.w3.org/2000/svg" in="SourceGraphic" stdDeviation="4.294"/>
   <feOffset xmlns="http://www.w3.org/2000/svg" dx="0" dy="4" result="pf_100_offsetBlur"/>
   <feFlood xmlns="http://www.w3.org/2000/svg" flood-opacity=".4"/>
   <feComposite xmlns="http://www.w3.org/2000/svg" in2="pf_100_offsetBlur" operator="in" result="pf_100_dropShadow"/>
   <feBlend xmlns="http://www.w3.org/2000/svg" in="SourceGraphic" in2="pf_100_dropShadow" mode="normal"/>
  </filter>
 </defs>
 <g filter="url(#ITudDIRcXdNKNWNAh1esCcpuARwmn5f1)">
  <path fill="#F1F0E9" d="M 165.685 11.947 C 239.74 11.947 250.324 22.504 250.324 96.491 L 250.324 155.742 C 250.324 229.728 239.74 240.285 165.685 240.285 L 90.315 240.285 C 16.26 240.285 5.676 229.728 5.676 155.742 L 5.676 96.491 C 5.676 22.504 16.26 11.947 90.315 11.947 L 165.685 11.947 Z"/>
 </g>
 <path fill="#DAD9CE" d="M 243.924 39.23 C 248.985 51.876 250.324 70.17 250.324 96.491 L 250.324 122.333 Q 217.333 183.667 185.968 239.919 C 179.801 240.181 173.058 240.285 165.685 240.285 L 137 240.285 Q 228.667 69 243.924 39.23 Z"/>
 <path fill="#C8C4B7" d="M 184.669 12.261 C 219.522 13.599 236.307 19.704 244.084 39.634 Q 223 80.333 139.333 240.285 L 90.315 240.285 C 80.884 240.285 72.482 240.114 65 239.662 C 94 185.667 166.333 46.667 184.669 12.261 Z"/>
 <path fill="#AEA795" d="M 249.604 182.54 C 246.272 232.404 229.669 240.285 165.685 240.285 L 90.315 240.285 C 26.316 240.285 9.721 232.401 6.394 182.507 C 1.203 183.141 245.48 183.186 249.604 182.54 Z"/>
 <g opacity=".05">
  <path fill="#FFFFFF" d="M 185.002 12.274 C 241.644 14.505 250.324 29.487 250.324 96.491 L 250.324 155.742 C 250.324 229.728 239.74 240.285 165.685 240.285 L 90.315 240.285 C 81.031 240.285 72.745 240.119 65.352 239.683 C 100.333 174 173 34.667 185.002 12.274 Z"/>
 </g>
 <path fill="#DAD9CE" d="M 135.822 11.918 L 46.455 183.205 L 95.385 183.205 L 184.562 12.282 L 135.822 11.918 Z"/>
 <g>
  <circle fill="#F9F9F9" cx="0" cy="0" r="1" transform="matrix(24,0,0,24,183,87)" vector-effect="non-scaling-stroke"/>
  <g>
   <path fill="#FFFFFF" d="M 47 183 L 94.635 91.372 L 142.27 183 L 47 183 Z"/>
   <path fill="#F9F9F9" d="M 95 183 L 131 114 L 167 183 L 95 183 Z"/>
  </g>
  <defs>
   <filter id="YfC21PiEkLEgnnM3NpiUUGyEGKOKyoZq" width="160.131" height="160.287" x="47.31" y="49.44" filterUnits="userSpaceOnUse">
    <feGaussianBlur xmlns="http://www.w3.org/2000/svg" stdDeviation="1.531"/>
   </filter>
  </defs>
  <g opacity=".2" filter="url(#YfC21PiEkLEgnnM3NpiUUGyEGKOKyoZq)">
   <path d="M 114.875 53 C 79.577 53 50.875 81.702 50.875 117 C 50.875 152.298 79.577 181 114.875 181 C 130.327 181 144.514 175.498 155.584 166.352 L 162.475 173.242 L 161.061 174.656 L 192.561 206.156 L 203.875 194.844 L 172.375 163.344 L 170.961 164.758 L 164.08 157.877 C 173.312 146.783 178.875 132.532 178.875 117 C 178.875 81.702 150.173 53 114.875 53 L 114.875 53 Z M 114.875 61.137 C 145.776 61.137 170.738 86.099 170.738 117 C 170.738 147.901 145.776 172.865 114.875 172.865 C 83.974 172.865 59.01 147.901 59.01 117 C 59.01 86.099 83.974 61.137 114.875 61.137 L 114.875 61.137 Z"/>
  </g>
  <g>
   <path fill="#888888" d="M 154.47 163.24 L 162.96 154.76 L 174.96 166.76 L 166.47 175.24 L 154.47 163.24 Z"/>
   <path fill="#3B3B3B" d="M 161.06 172.66 L 172.37 161.34 L 203.87 192.84 L 192.56 204.16 L 161.06 172.66 Z"/>
   <circle fill="#FFFFFF" fill-opacity=".543" cx="0" cy="0" r="1" transform="matrix(59.932,0,0,59.932,114.875,115)" vector-effect="non-scaling-stroke"/>
   <path fill="#666666" fill-rule="evenodd" d="M 178.87 115 M 178.87 115 L 178.87 115 C 178.87 115 178.87 115 178.87 115 Z M 178.87 115 C 178.88 123.55 177.17 132.02 173.84 139.9 C 170.62 147.5 165.96 154.41 160.12 160.25 C 154.29 166.09 147.38 170.74 139.78 173.97 C 131.9 177.29 123.43 179.01 114.87 179 C 106.32 179.01 97.85 177.29 89.97 173.97 C 82.37 170.74 75.46 166.09 69.63 160.25 C 63.79 154.41 59.13 147.5 55.91 139.9 C 52.58 132.02 50.87 123.55 50.87 115 C 50.87 106.45 52.58 97.98 55.91 90.1 C 59.13 82.5 63.79 75.59 69.63 69.75 C 75.46 63.91 82.37 59.26 89.97 56.03 C 97.85 52.71 106.32 50.99 114.87 51 C 123.43 50.99 131.9 52.71 139.78 56.03 C 147.38 59.26 154.29 63.91 160.12 69.75 C 165.96 75.59 170.62 82.5 173.84 90.1 C 177.17 97.98 178.88 106.45 178.87 115 Z M 170.74 115 L 170.74 115 C 170.74 122.47 169.25 129.86 166.35 136.73 C 163.54 143.37 159.47 149.4 154.37 154.49 C 149.27 159.59 143.24 163.66 136.61 166.47 C 129.73 169.38 122.34 170.87 114.88 170.86 C 114.88 170.86 114.88 170.86 114.87 170.86 L 114.87 170.86 L 114.87 170.86 C 107.41 170.87 100.02 169.38 93.14 166.47 C 86.51 163.66 80.47 159.59 75.38 154.49 C 70.28 149.4 66.21 143.37 63.4 136.73 C 60.5 129.86 59 122.47 59.01 115 C 59 107.53 60.5 100.14 63.4 93.26 C 66.21 86.63 70.28 80.6 75.38 75.51 C 80.47 70.41 86.51 66.34 93.14 63.53 C 100.02 60.62 107.41 59.13 114.87 59.14 C 122.34 59.13 129.73 60.62 136.61 63.53 C 143.24 66.34 149.27 70.41 154.37 75.51 C 159.47 80.6 163.54 86.63 166.35 93.27 C 169.25 100.14 170.74 107.53 170.74 115 C 170.74 115 170.74 115 170.74 115 L 170.74 115 Z"/>
  </g>
 </g>
 <g opacity=".4">
  <linearGradient id="_lgradient_0" x1=".517" x2=".517" y1="0" y2="1">
   <stop offset="0%" style="stop-color:rgb(255,255,255)"/>
   <stop offset="12.5%" stop-opacity=".098" style="stop-color:rgb(255,255,255)"/>
   <stop offset="92.5%" stop-opacity=".098" style="stop-color:rgb(0,0,0)"/>
   <stop offset="100%" stop-opacity=".498" style="stop-color:rgb(0,0,0)"/>
  </linearGradient>
  <path fill="none" stroke="url(#_lgradient_0)" stroke-linecap="round" stroke-linejoin="round" stroke-width="4.077" d="M 165.685 11.947 C 239.74 11.947 250.324 22.504 250.324 96.491 L 250.324 155.742 C 250.324 229.728 239.74 240.285 165.685 240.285 L 90.315 240.285 C 16.26 240.285 5.676 229.728 5.676 155.742 L 5.676 96.491 C 5.676 22.504 16.26 11.947 90.315 11.947 L 165.685 11.947 Z" vector-effect="non-scaling-stroke"/>
 </g>
</svg>
